Resources/Public/Images/Icons/Glyphicons/align-center.svg

<svg xmlns="http://www.w3.org/2000/svg" width="32" height="32"><path d="M7.3 2.2h17.5c.3 0 .6.1.9.4.2.3.3.6.3.9V6c0 .3-.1.6-.4.9-.2.2-.5.4-.9.4H7.3c-.3 0-.6-.1-.9-.4-.3-.3-.4-.5-.4-.9V3.5c0-.3.1-.6.4-.9.2-.2.5-.4.9-.4zm-5 7.5h27.5c.3 0 .6.1.9.4s.3.6.3.9v2.5c0 .3-.1.6-.4.9s-.5.4-.9.4H2.3c-.3 0-.6-.1-.9-.4s-.4-.5-.4-.9V11c0-.3.1-.6.4-.9.2-.2.5-.4.9-.4zm5 7.5h17.5c.3 0 .6.1.9.4.2.2.4.5.4.9V21c0 .3-.1.6-.4.9s-.5.4-.9.4H7.3c-.3 0-.6-.1-.9-.4-.3-.3-.4-.6-.4-.9v-2.5c0-.3.1-.6.4-.9.2-.2.5-.4.9-.4zm-5 7.5h27.5c.3 0 .6.1.9.4s.3.5.3.9v2.5c0 .3-.1.6-.4.9-.2.2-.5.4-.9.4H2.3c-.3 0-.6-.1-.9-.4s-.4-.6-.4-.9V26c0-.3.1-.6.4-.9s.5-.4.9-.4z"/></svg>

<?xml version="1.0" encoding="utf-8"?>
<!-- Generator: Adobe Illustrator 22.1.0, SVG Export Plug-In . SVG Version: 6.00 Build 0)  -->
<svg version="1.1" id="Ebene_1" xmlns="http://www.w3.org/2000/svg" xmlns:xlink="http://www.w3.org/1999/xlink" x="0px" y="0px"
	 width="32px" height="32px" viewBox="0 0 32 32" style="enable-background:new 0 0 32 32;" xml:space="preserve">
<path d="M7.3,2.2h17.5c0.3,0,0.6,0.1,0.9,0.4C25.9,2.9,26,3.2,26,3.5V6c0,0.3-0.1,0.6-0.4,0.9c-0.2,0.2-0.5,0.4-0.9,0.4H7.3
	c-0.3,0-0.6-0.1-0.9-0.4C6.1,6.6,6,6.4,6,6V3.5c0-0.3,0.1-0.6,0.4-0.9C6.6,2.4,6.9,2.2,7.3,2.2z M2.3,9.7h27.5
	c0.3,0,0.6,0.1,0.9,0.4S31,10.7,31,11v2.5c0,0.3-0.1,0.6-0.4,0.9s-0.5,0.4-0.9,0.4H2.3c-0.3,0-0.6-0.1-0.9-0.4S1,13.9,1,13.5V11
	c0-0.3,0.1-0.6,0.4-0.9C1.6,9.9,1.9,9.7,2.3,9.7z M7.3,17.2h17.5c0.3,0,0.6,0.1,0.9,0.4c0.2,0.2,0.4,0.5,0.4,0.9V21
	c0,0.3-0.1,0.6-0.4,0.9s-0.5,0.4-0.9,0.4H7.3c-0.3,0-0.6-0.1-0.9-0.4C6.1,21.6,6,21.3,6,21v-2.5c0-0.3,0.1-0.6,0.4-0.9
	C6.6,17.4,6.9,17.2,7.3,17.2z M2.3,24.7h27.5c0.3,0,0.6,0.1,0.9,0.4S31,25.6,31,26v2.5c0,0.3-0.1,0.6-0.4,0.9
	c-0.2,0.2-0.5,0.4-0.9,0.4H2.3c-0.3,0-0.6-0.1-0.9-0.4S1,28.8,1,28.5V26c0-0.3,0.1-0.6,0.4-0.9S1.9,24.7,2.3,24.7z"/>
</svg>
